Front-end/assets/images/icons/verge.svg

<svg width="133" height="23" viewBox="0 0 133 23" fill="none" xmlns="http://www.w3.org/2000/svg">
<path d="M0 0.0797732V6.23349H4.12508V22.4598H11.0972V0.0797732H0ZM22.8698 8.58483H19.6071V6.2229H21.2488V0.0797732H12.6454V22.4598H19.6071V13.9971H22.8698V22.4598H29.8523V0.0797732H22.8698V8.58483ZM31.3797 22.4598H44.2952V16.2955H38.0401V13.69H42.0197V8.58483H38.0401V6.23349H44.2952V0.0797732H31.3797V22.4598ZM99.2097 7.65277C99.2097 2.823 95.708 0.0797732 90.7413 0.0797732H82.9795V22.4492H89.9516V16.7192L93.9416 22.4492H101.807L96.1548 13.87C98.1914 12.7367 99.2097 10.6714 99.2097 7.65277ZM89.9309 10.1312V5.9687C90.8972 5.9687 92.0817 6.26527 92.435 7.34561C92.4662 7.44094 92.487 7.54685 92.5181 7.65277C92.5181 7.66336 92.5181 7.68454 92.5285 7.69513C92.5389 7.80105 92.5597 7.92815 92.5597 8.05525C92.5597 9.71813 91.0738 10.1312 89.9309 10.1312ZM58.1044 13.7112H58.042L57.5433 11.8682L55.9847 6.24408H58.7278L60.5358 0.0797732H46.6123L54.5923 22.4492H61.7411L62.6035 20.0555C62.6035 20.0555 66.4273 9.48512 68.5158 3.72328V22.4492H81.4313V16.2849H75.1762V13.6794H79.1454V8.58483H75.1762V6.23349H81.4313V0.0691809H62.1359L58.1044 13.7112ZM133 6.24408V0.0903654H120.084V22.4598H133V16.2955H126.734V13.69H130.714V8.60601H126.734V6.24408" fill="black"/>
<path d="M118.744 17.7677V8.64838H108.894V13.7323H112.562V15.5435C112.281 15.7977 111.678 15.9354 111.055 15.9354C108.499 15.9354 106.608 13.8806 106.608 11.3704C106.608 8.86021 108.447 6.63597 111.003 6.63597C112.551 6.63597 116.219 6.64657 116.219 6.64657V0.0162238H114.546C111.429 0.0162238 108.322 -0.237976 105.465 1.26603C103.21 2.45229 101.423 4.4647 100.477 6.8584C99.9266 8.26708 99.6461 9.79227 99.6461 11.3069C99.6461 17.6512 104.53 23 110.858 23C113.996 23 117.061 21.8032 118.734 20.3097C118.744 18.7634 118.744 18.5303 118.744 17.7677Z" fill="black"/>
</svg>

<svg width="133" height="23" fill="none" xmlns="http://www.w3.org/2000/svg"><path d="M0 .08v6.153h4.125V22.46h6.972V.08H0zm22.87 8.505h-3.263V6.223h1.642V.08h-8.604v22.38h6.962v-8.463h3.263v8.463h6.982V.08H22.87v8.505zm8.51 13.875h12.915v-6.165H38.04V13.69h3.98V8.585h-3.98V6.233h6.255V.08H31.38v22.38zM99.21 7.653c0-4.83-3.502-7.573-8.469-7.573H82.98v22.37h6.972v-5.73l3.99 5.73h7.865l-5.652-8.58c2.036-1.133 3.055-3.199 3.055-6.217zm-9.28 2.478V5.97c.967 0 2.152.296 2.505 1.377.031.095.052.2.083.307 0 .01 0 .032.01.042.01.106.032.233.032.36 0 1.663-1.486 2.076-2.63 2.076zm-31.826 3.58h-.062l-.499-1.843-1.558-5.624h2.743L60.536.08H46.612l7.98 22.37h7.15l.861-2.395s3.824-10.57 5.913-16.332V22.45H81.43v-6.164h-6.255V13.68h3.97V8.585h-3.97V6.233h6.255V.07H62.136l-4.032 13.642zM133 6.244V.09h-12.916v22.37H133v-6.165h-6.266V13.69h3.98V8.606h-3.98V6.244" fill="#000"/><path d="M118.744 17.768v-9.12h-9.85v5.084h3.668v1.812c-.281.254-.884.391-1.507.391-2.556 0-4.447-2.054-4.447-4.565 0-2.51 1.839-4.734 4.395-4.734 1.548 0 5.216.01 5.216.01V.017h-1.673c-3.117 0-6.224-.254-9.081 1.25-2.255 1.186-4.042 3.199-4.988 5.592a12.285 12.285 0 00-.83 4.449C99.646 17.65 104.53 23 110.857 23c3.138 0 6.203-1.197 7.876-2.69.01-1.547.01-1.78.01-2.542z" fill="#000"/></svg>
